X: 1
T: Merry Hielander, The
M: 4/4
L: 1/8
R: reel
K: Dmaj
|: f2af gfec | d2dA BAFB | ABcd ~e2ef |1 gfed e2de :|2 gfec d2B2 ||
|: AF(3FFF DFFA | BAFB AFEF | Ddde dBAF |1 BAFB AFEF :|2 BAFD EDD2 ||
